icons/documents-files-two-color.svg

<?xml version="1.0" encoding="UTF-8"?><svg id="uuid-22c0db65-a6b2-4e5c-ab80-b7d87f88b5a9" xmlns="http://www.w3.org/2000/svg" viewBox="0 0 50 50"><path d="M26.58,17.99c0-3.61,0-7.23,0-10.84H7.86V49.47h31.57c-.02-10.49-.03-20.98-.05-31.47h-12.8Z" fill="#ffcd00"/><path d="M44.14,.53H11.57c-.28,0-.5,.22-.5,.5v1.67h-2.32c-.28,0-.5,.22-.5,.5v1.45h-2.38c-.28,0-.5,.22-.5,.5V48.47c0,.28,.22,.5,.5,.5H38.43c.28,0,.5-.22,.5-.5v-1.45h2.38c.28,0,.5-.22,.5-.5v-1.67h2.32c.28,0,.5-.22,.5-.5V1.03c0-.28-.22-.5-.5-.5Zm-6.21,47.44H6.36V5.65H25.59v11.84c0,.28,.22,.5,.5,.5h11.84v29.98Zm-11.34-30.98V6.36l10.64,10.63h-10.64Zm14.23,29.03h-1.88V17.49s0-.04-.01-.06c0-.02,0-.04-.01-.06-.02-.08-.06-.16-.12-.23L26.44,4.8c-.06-.06-.14-.1-.23-.12-.02,0-.04,0-.06-.01-.02,0-.04-.01-.07-.01H9.24v-.95h31.57V46.02Zm2.82-2.17h-1.82V3.2c0-.28-.22-.5-.5-.5H12.07V1.53h31.57V43.85Z"/></svg>

<svg id="b23049e4-c0b1-4fbc-bdaf-4c2bb711887c" data-name="ICONS" xmlns="http://www.w3.org/2000/svg" viewBox="0 0 50 50"><path d="M26.58,18c0-3.61,0-7.23,0-10.84H7.86V49.47H39.43q0-15.73,0-31.47H26.58Z" fill="#fdd600"/><path d="M44.14.53H11.57a.5.5,0,0,0-.5.5V2.7H8.74a.5.5,0,0,0-.5.5V4.65H5.86a.5.5,0,0,0-.5.5V48.47a.51.51,0,0,0,.5.5H38.43a.5.5,0,0,0,.5-.5V47h2.38a.5.5,0,0,0,.5-.5V44.85h2.33a.5.5,0,0,0,.5-.5V1A.51.51,0,0,0,44.14.53ZM37.93,48H6.36V5.65H25.59V17.49a.5.5,0,0,0,.5.5H37.93ZM26.59,17V6.36L37.22,17ZM40.81,46H38.93V17.49s0,0,0-.06,0,0,0-.07a.5.5,0,0,0-.13-.22L26.44,4.8a.48.48,0,0,0-.23-.13h-17v-1H40.81Zm2.83-2.17H41.81V3.2a.5.5,0,0,0-.5-.5H12.07V1.53H43.64Z" fill="#231f20"/></svg>
